public/img/home/solutions/icon-solutions-07.svg

<svg fill="none" height="87" viewBox="0 0 109 87" width="109" xmlns="http://www.w3.org/2000/svg"><path d="m30.7829 78c-5.9938 0-10.8695-4.8471-10.8695-10.8044 0-.751.076-1.4866.2263-2.1847l.2603-1.2123h-4.2864c-4.4733 0-8.1136-3.6166-8.1136-8.0627v-37.6668c0-4.4497 3.6394-8.0691 8.1136-8.0691h47.4225c4.4706 0 8.1072 3.6194 8.1072 8.0691v5.3913h14.0515c1.5471 0 3.0474.6362 4.1169 1.7445l10.6053 11.0067c1.02 1.0646 1.583 2.4591 1.583 3.9238v18.0077c0 2.6514-1.889 4.9811-4.4926 5.538l-.9568.205.1778.958c.1219.658.1842 1.3225.1842 1.9769 0 5.9573-4.8766 10.8044-10.8695 10.8044s-10.864-4.8471-10.864-10.8044c0-.6216.0541-1.2368.1613-1.8284l.2136-1.1803h-16.79v-.0118h-17.6047l.2603 1.2122c.1503.6982.2263 1.4337.2263 2.1847 0 5.9573-4.8738 10.8044-10.864 10.8044zm-9.5544-13.4677c-.2484.8431-.3739 1.74-.3739 2.6642 0 5.4414 4.4541 9.8683 9.9283 9.8683 5.4741 0 9.9227-4.4269 9.9227-9.8683 0-.9242-.1255-1.8211-.3739-2.6642-.1466-.5459-.3547-1.0983-.6205-1.6406-.2923-.5942-.6342-1.1466-1.0182-1.6424-1.8907-2.4892-4.7758-3.9211-7.9092-3.9211-3.1335 0-6.0241 1.4319-7.9203 3.9275-.3785.4894-.7203 1.0418-1.0118 1.6351-.2667.5432-.4756 1.0956-.6214 1.6415zm55.1567.0493c-.175.7063-.2639 1.4583-.2639 2.2376 0 5.4414 4.4513 9.8683 9.9227 9.8683s9.9283-4.4269 9.9283-9.8683c0-.7784-.0889-1.5303-.264-2.2367-.2666-1.163-.7469-2.2641-1.4288-3.2703-1.8513-2.7307-4.9297-4.3604-8.2364-4.3604s-6.3796 1.6297-8.23 4.3604c-.6819 1.0071-1.1621 2.1073-1.4288 3.2703zm9.6579-8.5659c4.203 0 8.0706 2.4518 9.8522 6.2462l.3144.6681.735-.0993c2.3453-.3172 4.1143-2.3325 4.1143-4.6876v-18.0077c0-.2688-.023-.535-.069-.792l-.005-.0283-.166-.8021h-29.1757v24.3614h4.2663l.2712-.5806c1.778-3.8144 5.6492-6.2781 9.8632-6.2781zm-55.2602.3764c4.1067 0 7.8194 2.2696 9.6899 5.9236l.2805.5478h29.9479v-44.7944c0-3.9329-3.215-7.1321-7.166-7.1321h-47.4216c-3.9546-.0009-7.17237 3.1992-7.17237 7.1321v37.6677c0 3.9293 3.21687 7.1267 7.17147 7.1267h4.6933l.2805-.5478c1.8705-3.654 5.5859-5.9236 9.6954-5.9236zm40.8604-18.8151h28.7867l-11.2983-11.725c-.8936-.9251-2.1455-1.4556-3.4369-1.4556h-14.0515v13.1815z" fill="#fff"/></svg>

<svg width="109" height="87" viewBox="0 0 109 87" fill="none" xmlns="http://www.w3.org/2000/svg">
<path d="M30.7829 78C24.7891 78 19.9134 73.1529 19.9134 67.1956C19.9134 66.4446 19.9894 65.709 20.1397 65.0109L20.4 63.7986H16.1136C11.6403 63.7986 8 60.182 8 55.7359V18.0691C8 13.6194 11.6394 10 16.1136 10H63.5361C68.0067 10 71.6433 13.6194 71.6433 18.0691V23.4604H85.6948C87.2419 23.4604 88.7422 24.0966 89.8117 25.2049L100.417 36.2116C101.437 37.2762 102 38.6707 102 40.1354V58.1431C102 60.7945 100.111 63.1242 97.5074 63.6811L96.5506 63.8861L96.7284 64.8441C96.8503 65.5021 96.9126 66.1666 96.9126 66.821C96.9126 72.7783 92.036 77.6254 86.0431 77.6254C80.0502 77.6254 75.1791 72.7783 75.1791 66.821C75.1791 66.1994 75.2332 65.5842 75.3404 64.9926L75.554 63.8123H58.764V63.8005H41.1593L41.4196 65.0127C41.5699 65.7109 41.6459 66.4464 41.6459 67.1974C41.6459 73.1547 36.7721 78.0018 30.7819 78.0018L30.7829 78ZM21.2285 64.5323C20.9801 65.3754 20.8546 66.2723 20.8546 67.1965C20.8546 72.6379 25.3087 77.0648 30.7829 77.0648C36.257 77.0648 40.7056 72.6379 40.7056 67.1965C40.7056 66.2723 40.5801 65.3754 40.3317 64.5323C40.1851 63.9864 39.977 63.434 39.7112 62.8917C39.4189 62.2975 39.077 61.7451 38.693 61.2493C36.8023 58.7601 33.9172 57.3282 30.7838 57.3282C27.6503 57.3282 24.7597 58.7601 22.8635 61.2557C22.485 61.7451 22.1432 62.2975 21.8517 62.8908C21.585 63.434 21.3761 63.9864 21.2303 64.5323H21.2285ZM76.3852 64.5816C76.2102 65.2879 76.1213 66.0399 76.1213 66.8192C76.1213 72.2606 80.5726 76.6875 86.044 76.6875C91.5154 76.6875 95.9723 72.2606 95.9723 66.8192C95.9723 66.0408 95.8834 65.2889 95.7083 64.5825C95.4417 63.4195 94.9614 62.3184 94.2795 61.3122C92.4282 58.5815 89.3498 56.9518 86.0431 56.9518C82.7364 56.9518 79.6635 58.5815 77.8131 61.3122C77.1312 62.3193 76.651 63.4195 76.3843 64.5825L76.3852 64.5816ZM86.0431 56.0157C90.2461 56.0157 94.1137 58.4675 95.8953 62.2619L96.2097 62.93L96.9447 62.8307C99.29 62.5135 101.059 60.4982 101.059 58.1431V40.1354C101.059 39.8666 101.036 39.6004 100.99 39.3434L100.985 39.3151L100.819 38.513H71.6433V62.8744H75.9096L76.1808 62.2938C77.9588 58.4794 81.83 56.0157 86.044 56.0157H86.0431ZM30.7829 56.3921C34.8896 56.3921 38.6023 58.6617 40.4728 62.3157L40.7533 62.8635H70.7012V18.0691C70.7012 14.1362 67.4862 10.937 63.5352 10.937H16.1136C12.159 10.9361 8.94123 14.1362 8.94123 18.0691V55.7368C8.94123 59.6661 12.1581 62.8635 16.1127 62.8635H20.806L21.0865 62.3157C22.957 58.6617 26.6724 56.3921 30.7819 56.3921H30.7829ZM71.6433 37.577H100.43L89.1317 25.852C88.2381 24.9269 86.9862 24.3964 85.6948 24.3964H71.6433V37.5779V37.577Z" fill="white"/>
</svg>
